X: 362
T: Da shimenwu
L: 1/16
M: 2/4
K: G
d2 d e g2 g e [I:setbarnb 1]| 
d2 e dc4 | 
d2> e2 d2 c2 | 
B2 A BG4 | 
G2 G A d2 d2 | 
d2 e dc4 | 
G2 F E D2 B2 | 
A2> G2 A G F E | 
D8 |]

@@@ Tune index: 9236
